libs/icons/src/svg/rename.svg

<svg width="16" height="16" viewBox="0 0 16 16" fill="none" xmlns="http://www.w3.org/2000/svg">
<g clip-path="url(#clip0_3_3737)">
<path fill-rule="evenodd" clip-rule="evenodd" d="M2.11784 13.3222C2.0776 13.3281 2.04144 13.3333 2.00002 13.3333C1.82669 13.3333 1.65336 13.2666 1.53336 13.14C1.38002 12.9866 1.30669 12.76 1.35336 12.54L2.02002 9.20665C2.04669 9.07998 2.10669 8.95998 2.20002 8.86665L10.2 0.866646C10.46 0.606646 10.88 0.606646 11.14 0.866646L13.8067 3.53331C14.0667 3.79331 14.0667 4.21331 13.8067 4.47331L5.80669 12.4733C5.71336 12.5666 5.59335 12.6266 5.46669 12.6533L2.13336 13.32C2.1281 13.3207 2.12294 13.3215 2.11784 13.3222ZM12.3934 3.99998L10.6667 2.27331L9.60669 3.33331L11.3334 5.05998L12.3934 3.99998ZM8.66669 4.27331L3.28002 9.65998L2.85336 11.82L5.00669 11.3866L10.3934 5.99998L8.66669 4.27331ZM1.33333 14.6667H14.6667C15.0333 14.6667 15.3333 14.9667 15.3333 15.3333C15.3333 15.7 15.0333 16 14.6667 16H1.33333C0.966664 16 0.666664 15.7 0.666664 15.3333C0.666664 14.9667 0.966664 14.6667 1.33333 14.6667Z" fill="#202327"/>
</g>
<defs>
<clipPath id="clip0_3_3737">
<rect width="16" height="16" fill="white"/>
</clipPath>
</defs>
</svg>

<svg xmlns="http://www.w3.org/2000/svg" viewBox="0 0 16 16" class="sageicon"><path fill-rule="evenodd" d="M2.118 13.322a.645.645 0 0 1-.584-.182.66.66 0 0 1-.18-.6l.666-3.333a.676.676 0 0 1 .18-.34l8-8c.26-.26.68-.26.94 0l2.667 2.666c.26.26.26.68 0 .94l-8 8a.677.677 0 0 1-.34.18l-3.334.667-.015.002ZM12.393 4l-1.726-1.727-1.06 1.06 1.726 1.727L12.393 4Zm-3.726.273L3.28 9.66l-.427 2.16 2.154-.433L10.393 6 8.667 4.273ZM1.333 14.667h13.334c.366 0 .666.3.666.666 0 .367-.3.667-.666.667H1.333a.669.669 0 0 1-.666-.667c0-.366.3-.666.666-.666Z"/></svg>
